X: 35
T:Lord Moira
% Nottingham Music Database
S:Kevin Briggs
P:AAB
M:4/4
L:1/8
R:Hornpipe
K:G
B/2A/2|"G"G2G2 B/2d3/2dB|"C"cABG "D7"AG F2/3E2/3D2/3|"G"G2G2 B/2d3/2d2|\
"C"e2/3f2/3g2/3"D7"f2/3g2/3a2/3 "G"g2g:|

d|"G"gabg "D"agf/2d3/2|"C"efge "G"dBA/2G3/2|"G"gabg "D"agf/2d3/2|\
"C"e2/3f2/3g2/3"D7" f2/3g2/3a2/3 "G"g2 g2/3a2/3b2/3|
"C"c'a"G/b"bg "Am"ag"D"fd|"C"efge "D7"dcB/2A3/2|"G"G2G2 B/2d3/2d2|\
"C"e2/3f2/3g2/3"D7"f2/3g2/3a2/3 "G"g2g||


